svg/submarine.svg

<svg xmlns="http://www.w3.org/2000/svg" viewBox="0 0 24 24"><path d="M8 3.67C6.78 4.53 5.39 4.93 4 5H2v2h2c1.37 0 2.74-.35 4-1 2.5 1.3 5.5 1.3 8 0 1.26.65 2.62.94 4 1h2V5h-2c-1.39 0-2.78-.47-4-1.33-2.44 1.71-5.56 1.71-8 0m8 5L15 10v2h-1l-2 2H9l-3 2-1-2H4v2l-2 1 2 1v2h1.14L6 18l3 2h11a2 2 0 0 0 2-2v-2a2 2 0 0 0-2-2h-2l-1-1v-1h-1v-2h1V8.67Z"/></svg>

<?xml version="1.0" encoding="UTF-8"?><!DOCTYPE svg PUBLIC "-//W3C//DTD SVG 1.1//EN" "http://www.w3.org/Graphics/SVG/1.1/DTD/svg11.dtd"><svg xmlns="http://www.w3.org/2000/svg" xmlns:xlink="http://www.w3.org/1999/xlink" version="1.1" id="mdi-submarine" width="24" height="24" viewBox="0 0 24 24"><path d="M8 3.67C6.78 4.53 5.39 4.93 4 5H2V7H4C5.37 7 6.74 6.65 8 6C10.5 7.3 13.5 7.3 16 6C17.26 6.65 18.62 6.94 20 7H22V5H20C18.61 5 17.22 4.53 16 3.67C13.56 5.38 10.44 5.38 8 3.67M16 8.67L15 10V12H14L12 14H9L6 16L5 14H4V16L2 17L4 18V20H5.14L6 18L9 20H20A2 2 0 0 0 22 18V16A2 2 0 0 0 20 14H18L17 13V12H16V10H17V8.67Z" /></svg>
